svg/tire.svg

<svg xmlns="http://www.w3.org/2000/svg" viewBox="0 0 24 24"><path d="m19.66 9.64-.36-.94 1.86-.7c-.92-2.12-2.56-3.82-4.62-4.86l-.8 1.78-.92-.42.8-1.8C14.5 2.26 13.28 2 12 2c-1.06 0-2.08.22-3.04.5l.68 1.84-.94.36L8 2.84c-2.12.92-3.82 2.56-4.86 4.62l1.78.8-.42.92-1.8-.8C2.26 9.5 2 10.72 2 12c0 1.06.22 2.08.5 3.04l1.84-.68.36.94-1.86.7c.92 2.12 2.56 3.82 4.62 4.86l.8-1.78.92.42-.8 1.8c1.12.44 2.34.7 3.62.7 1.06 0 2.08-.22 3.04-.5l-.68-1.84.94-.36.7 1.86c2.12-.92 3.82-2.56 4.86-4.62l-1.78-.8.42-.92 1.8.8c.44-1.12.7-2.34.7-3.62 0-1.06-.22-2.08-.5-3.04zm-5.36 7.9c-3.06 1.26-6.58-.18-7.84-3.24s.18-6.58 3.24-7.84 6.58.18 7.84 3.24a5.986 5.986 0 0 1-3.24 7.84"/></svg>

<svg xmlns="http://www.w3.org/2000/svg" id="mdi-tire" viewBox="0 0 24 24"><path d="M19.66 9.64L19.3 8.7L21.16 8C20.24 5.88 18.6 4.18 16.54 3.14L15.74 4.92L14.82 4.5L15.62 2.7C14.5 2.26 13.28 2 12 2C10.94 2 9.92 2.22 8.96 2.5L9.64 4.34L8.7 4.7L8 2.84C5.88 3.76 4.18 5.4 3.14 7.46L4.92 8.26L4.5 9.18L2.7 8.38C2.26 9.5 2 10.72 2 12C2 13.06 2.22 14.08 2.5 15.04L4.34 14.36L4.7 15.3L2.84 16C3.76 18.12 5.4 19.82 7.46 20.86L8.26 19.08L9.18 19.5L8.38 21.3C9.5 21.74 10.72 22 12 22C13.06 22 14.08 21.78 15.04 21.5L14.36 19.66L15.3 19.3L16 21.16C18.12 20.24 19.82 18.6 20.86 16.54L19.08 15.74L19.5 14.82L21.3 15.62C21.74 14.5 22 13.28 22 12C22 10.94 21.78 9.92 21.5 8.96L19.66 9.64M14.3 17.54C11.24 18.8 7.72 17.36 6.46 14.3S6.64 7.72 9.7 6.46 16.28 6.64 17.54 9.7C18.82 12.76 17.36 16.28 14.3 17.54Z" /></svg>
